img/advantages/3.svg

<svg width="42" height="42" viewBox="0 0 42 42" fill="none" xmlns="http://www.w3.org/2000/svg">
<path d="M20.9999 28.7917C22.6055 28.7917 24.0635 28.3372 25.3739 27.4281C26.6843 26.5191 27.6346 25.3208 28.2249 23.8333H13.7749C14.3652 25.3208 15.3155 26.5191 16.626 27.4281C17.9364 28.3372 19.3944 28.7917 20.9999 28.7917ZM15.0499 19.5833L16.6083 18.0958L18.0958 19.5833L19.5833 18.0958L16.6083 15.05L13.5624 18.0958L15.0499 19.5833ZM23.9041 19.5833L25.3916 18.0958L26.9499 19.5833L28.4374 18.0958L25.3916 15.05L22.4166 18.0958L23.9041 19.5833ZM20.9999 35.1667C19.0402 35.1667 17.1985 34.7948 15.4749 34.0511C13.7513 33.3073 12.252 32.2979 10.977 31.0229C9.702 29.7479 8.69263 28.2486 7.94888 26.525C7.20513 24.8014 6.83325 22.9597 6.83325 21C6.83325 19.0403 7.20513 17.1986 7.94888 15.475C8.69263 13.7514 9.702 12.2521 10.977 10.9771C12.252 9.70209 13.7513 8.69272 15.4749 7.94897C17.1985 7.20522 19.0402 6.83334 20.9999 6.83334C22.9596 6.83334 24.8013 7.20522 26.5249 7.94897C28.2485 8.69272 29.7478 9.70209 31.0228 10.9771C32.2978 12.2521 33.3072 13.7514 34.051 15.475C34.7947 17.1986 35.1666 19.0403 35.1666 21C35.1666 22.9597 34.7947 24.8014 34.051 26.525C33.3072 28.2486 32.2978 29.7479 31.0228 31.0229C29.7478 32.2979 28.2485 33.3073 26.5249 34.0511C24.8013 34.7948 22.9596 35.1667 20.9999 35.1667Z" fill="#7171E2"/>
</svg>

<svg width="42" height="42" fill="none" xmlns="http://www.w3.org/2000/svg"><path d="M21 28.792a7.5 7.5 0 0 0 4.374-1.364 7.77 7.77 0 0 0 2.85-3.595h-14.45a7.77 7.77 0 0 0 2.852 3.595A7.5 7.5 0 0 0 21 28.792Zm-5.95-9.209 1.558-1.487 1.488 1.487 1.487-1.487-2.975-3.046-3.046 3.046 1.488 1.487Zm8.854 0 1.488-1.487 1.558 1.487 1.487-1.487-3.045-3.046-2.975 3.046 1.487 1.487ZM21 35.167c-1.96 0-3.802-.372-5.525-1.116a14.307 14.307 0 0 1-4.498-3.028 14.306 14.306 0 0 1-3.028-4.498C7.205 24.801 6.833 22.96 6.833 21c0-1.96.372-3.801 1.116-5.525a14.306 14.306 0 0 1 3.028-4.498 14.306 14.306 0 0 1 4.498-3.028C17.198 7.205 19.04 6.833 21 6.833c1.96 0 3.801.372 5.525 1.116a14.306 14.306 0 0 1 4.498 3.028 14.307 14.307 0 0 1 3.028 4.498c.744 1.724 1.116 3.565 1.116 5.525 0 1.96-.372 3.801-1.116 5.525a14.307 14.307 0 0 1-3.028 4.498 14.307 14.307 0 0 1-4.498 3.028c-1.724.744-3.565 1.116-5.525 1.116Z" fill="#7171E2"/></svg>
